T: Clog De Champagne
M: 4/4
L: 1/8
K: Gmaj
| A>BA>G E>AG>E | F>d c2 E>cA>F | | A>Bc>A E2 A>G | F>dc>A F>DE>F || A>Bc>A E2 A>G | F>dc>A E>cA>F || A>Bc>A E2 A>G | F>dc>A E>cA>D |
